/* XPM */
static char *xpm[] = {
"64 64 41 1",
"0 c #507C46",
"1 c #4F7B45",
"2 c #4E7A44",
"3 c #4D7943",
"4 c #4C7842",
"5 c #4B7741",
"6 c #4A7640",
"7 c #49753F",
"8 c #48743E",
"9 c #47733D",
"A c #46723C",
"B c #45713B",
"C c #44703A",
"D c #436F39",
"E c #406C36",
"F c #3F6B35",
"G c #3E6A34",
"H c #3D6933",
"I c #3B6731",
"J c #3A6630",
"K c #39652F",
"L c #38642E",
"M c #37632D",
"N c #36622C",
"O c #35612B",
"P c #34602A",
"Q c #335F29",
"R c #325E28",
"S c #315D27",
"T c #305C26",
"U c #2F5B25",
"V c #2E5A24",
"W c #2D5923",
"X c #2C5822",
"Y c #2B5721",
"Z c #2A5620",
"a c #29551F",
"b c #26521C",
"c c #25511B",
"d c #24501A",
"e c #0D3903",
"666JJJddddddd2222222JJJJJJJJJJJTTTJJJJJJJJJJJJJJJIcccQQ555TTTTTT",
"6633Jedddeed222222222JJJJJJJJJJJJJJJ22eeJJJ999JJIIIII55555TTTTTT",
"663333dddddd222222222JJJJJJJJJJJJJ222222299999LLLIIIII55ee5TTTTT",
"3333334dddddQee2222eeJJIeeJJJJJeJJ2222222aaa9LLLLLII8885555JTTTJ",
"33333334dddQQQQQ2222PPIIIIIJJJJJJ222222222aaaLLLLL88886665JJJJJJ",
"33333334MJQQQQQQQ222PIIIIIIIJJJJJ2222222eeaaaaLLLL88866666JJJJJJ",
"33333334MJQQQQQQQ2PPPIIIIIIIJUUUJ222222222aaaaLLL888866666JJJJJJ",
"3333334MJJQQQQQQQPePPIIIIIIIUUUUOO2222222aaaaa9NNN88866666JJBBBJ",
"333333MJJJJQQQQQPPPPPPIIIIIUUUUOOOee22222aaaaNNNNNNN88ee68JBBBBB",
"J333JJJJJJJJQQQJPePPPPPIIIUUUUOOOOOO22277aaa9NNNNNNN88888S99BBBB",
"JJJJJJJJJJJOOOJJPPPPPPPJJJUUUUOOWWWOO7777777NNNNNNNNN8888S9999BB",
"JJJJJVeVJJOOOOOJJJPPeeJJJJUUUUOWWWeeO7777777NNNNNNNNN88SSS9999BJ",
"JJJJVVVVVOOOOOOOJJJJJJeeJJJUUUUWWWWW777777SSNNNNNNNNNSSSS999999J",
"JJJJVVVVVOOOOOOOJJJJJJJJJJJUUUUWWWWW7777SS000NNNNNNNJSSCCC99999J",
"JJJJVVVVVOOOOOOOJJJJJJJJ777JJUUUWWWFFFDD00000NNNNNNNJJCCCCC9999e",
"JJJJJVVVJJOOOOOJJJJJJFFF77777JJJKKKeeDDS0000000NNNEEJJCCCCC999JJ",
"JJJJJJJeeJJOOOJJJWWWFFFFF7777JJJeeJJDDD000000000EEEEJJCCCCC999JJ",
"JJJJJJJJJJJJJJJJWWWFeFFFFF7777JJJJJJDDD000000000EEEEZJJCCC99JJJJ",
"777JJJJJJJJJJJJJWWWFFFFFFF7777JJJJJJeDD000000000EEEZZZJJJJJJJJJJ",
"E777JJJJJJJJeeJJWWWFFFFFFF7777JJJJJJJDee0000000ZZZZZeZZJJJJJJJJJ",
"E777JJJJJJJJJJJJJWWWFFFFF7777JJJJJJJJJDD0000000ZZZZZZZZJJJJJJJJJ",
"E777JJeeJJJMMMJJJJJJJFFF77777JJJJJJJJJJJJJ000DZZZZZZZZZJJFFFJJDD",
"777JJJdddJMMMMMJJJJJJJJJ777JJJJJJJJJJJMMMJDDDDDZZZZLLLJJFFFFFDDD",
"JJJJJdddddMMeeMJJJJJJJJJJJJJJJJJJJJJJMMMMMDDDDDJZZLLLLLJFFFFFDDD",
"JJJJdddddddMMMMVZZZJJJJJJJJJJJ999ZZZMMMMMMMDDDJJJJLLLLLJFFFFFDDD",
"JJJJdddddddMMMVZZZZZJJJJJJJJJ99999ZZeeMMMMMJJJJJJJLLLLLJbeeFKKDD",
"JJJJdddaaadJJVVeZZZZJJZZZJ119999999ZZZMMMMMJJJJJJeeLLLJJbbKKKKKD",
"JJeJJaaaaaaaVVeZZZZZZZ6661UUU999999ZZZRRRMJJJJJJJeeJJJJJbKKKKKKK",
"JJJJJaaaaaaaVVVVZZZVZ6666UUUUU99999ZRRRRRReeJJJJJJJJJJJJJKKKKKKK",
"JJJJaaaaaaaaaVVVVVVZ6ee66UUUUU9999ZZRRRRRRRJDDDJJJJJJJJJJKKKKKKK",
"6JJJaaaaaaaaaVVVVVVZ66666UeUUU999ZMMMRRRRRRRDDDDDJJeeJJJJJKKKKKJ",
"6JJJaaaaaaaaaVVVVVVZ666666UUU00eeMMMMMMRRRRRDDDDDJJJJJJJJJJKKKJJ",
"11JJJaaaaeeaJJJVVV77Z66666Z00000MMMMMMMRRRRRDDDDDDJJJJJJJJJJJJJJ",
"1111JaaaaaaaJJJJJ7eeZQQQ6ZZ0000MMMeMMMMMRRRDDDDDDDJJJJJJJJJJJJJJ",
"1111JeJaeacJJJJJJ777QQQQQJJ0000eeMMMMMMMRRRDDDDDDDeJJJJJJJJJJJJJ",
"e1111JJcGGGcJJJJe777QQQQQJJJ000MMMMMMMMMRVDDDDDDDJJJJJJJJJJJJJJJ",
"11111JJGGGGGJJJJJJ77QQQQQJJJJ000MMMMMMMJJJDAAADDDJJJJJJJJJJJJJJJ",
"1eXXXJJGGGGGJJJJJJJ7cQQQcJJJJJJeMMMMMMMJJAAAAAAAJJJJJJJJJJJJJJJJ",
"XXXXXXXGGGGGJJJJJJJJJccc111JJJJJJJMeeJJJJAAAAAAAJJJJJJJUUUJJJJJJ",
"XXXXXXXJGGGJJJJJJJJJJJJ111eeJJJJJJeJJJJJAAAAAAAAAJJJeJUUUUUJJJJJ",
"XXXXXXXXJJJJJJJJJJJJJJJ11111JJJJJJJJJJJJAAAAAAAAAJNeNUUUUUUUJeJJ",
"XXXXXXXXJJJJJJJJJJJJJJJ11111JJJJJJJJJJJVVVAAAeeANNNNNUUUUUUUJJJJ",
"XXXXXXXXJJJJJJJJJJJJJJJJ111JJJJJJeeJJVVVVVVVAAAANNNNNUUUUUUUWWWJ",
"XXXXXXXXJJJJJJJJJJJJJJJJJJJJJJJJJJJJJVVVVVVVAAANNNNeNNUUUUUWWWWW",
"XXXXXXXXJJJJJJJJJJJJJJeeJJJJJJJJJJJJVVVVVVVVVAcNNNNNNNNUUUJWWWWW",
"c6XXXXXeJJJJJJJPPPJJJeeJJJOOOJJJJJeJVVVVVVVVV555NNNNNNNNJJJWWWWW",
"cccJXXXJJJJJJPPPPPPPJJJJJOOOOOJJJJJJVVVVVVVVV5555NNNNNNJeeJ2WWWJ",
"cccJJJJJJJJJJPPPPPPPcJJJJOOOOOJJJJJJJVVVVVVV55555NNNPPPJJ222ee22",
"ccccJJJJJJJJPPPPPPPPPJJJJOO888JJJJJJMVVVVVVVVV55eePPPPPPP2222222",
"ecccJJJJJJJJPPPPPPPPPcJJJJ88888JJJJMMMMVVVVVVVV5JJPPPPPPP2222222",
"ccccJJJJJJJJPPPPPPPPPcJJJJ888eeJJJJL555MdVVVVVVVJPPPPPPPPP222222",
"cccJJJJJJJJJJPPPPPPPccccJJ88888JJJL55555cVVVVVVVJPPPPPPPPP222222",
"cccJJJJJJJJJJPPPPPPPcc555cc888JJJeL55555cVVVVVVVJPPHHHPPPP222222",
"cJJJJJJJJJJJJJJPPPJJc55555ccJJJJJLL55555ccVVVVVJJJHHHHHPP2222222",
"JJJJJJJJJJJJJJJJJJJJJ5555eeZZZJJJLLL555LcccVVVJJJJHHHHHPP332223J",
"HHHHJJJJJJJJJJJJJJJJJ55555ZZZZZJJJLLLLLeccc22JJJJJHHHHHJJ3GGG3JJ",
"HHHHeHJJJJJJJJJJJJJJJe555ZZZZZZZJJJLLLYccc22JJJJJJJHHHFJJGGGGGJe",
"HHHHHHJJJJJJJJJJJJJJDDDceeZZZZZZeJJYYYYYcc2JJJJJJJeeFFFFeeGGGGJJ",
"HHHHHHHJJJJSSSJJJJJDDDDDJZZZZZZZJJYYYYYYYJJJJJJJJJFFFFFFFGGGGGJJ",
"HHHHHHHJJSSSSSSSJJDDDDDRReZZZZZJJJYYeYYYYJJJJJJeJFFFFFFFFFGGG77J",
"HHHHHHHJJSSSSSSSJCCCDDRRRRRZZZ6JJJYYYYYYYJJJJJJJJFFFFFFFFF77777J",
"PPPHHHJJSSSSSSSSCCCCCReRRRRR666JJJJYYYYYJJJJJJJJJFFFFFFFFF77777J",
"PPPPHHJJSSSSSSSCCCCCCCRRRRRR666JJeeJYYYJJJJJJJJJJJFFFFFFF77777JJ",
"PPPPJJJJeSSSSSSCCCCCCCRRRRRR6eeJJJJJJJJJJJJJJJJJJJFFFFFFFJ777JJJ"
};
