/* XPM */
static char *xpm[] = {
"64 64 48 1",
"0 c #F0C85A",
"1 c #507C46",
"2 c #4F7B45",
"3 c #4E7A44",
"4 c #4D7943",
"5 c #4C7842",
"6 c #4B7741",
"7 c #4A7640",
"8 c #49753F",
"9 c #48743E",
"A c #47733D",
"B c #46723C",
"C c #45713B",
"D c #44703A",
"E c #436F39",
"F c #426E38",
"G c #416D37",
"H c #406C36",
"I c #3F6B35",
"J c #3E6A34",
"K c #3D6933",
"L c #3C6832",
"M c #3B6731",
"N c #3A6630",
"O c #C44060",
"P c #39652F",
"Q c #38642E",
"R c #37632D",
"S c #36622C",
"T c #35612B",
"U c #34602A",
"V c #335F29",
"W c #325E28",
"X c #315D27",
"Y c #305C26",
"Z c #2F5B25",
"a c #2E5A24",
"b c #2D5923",
"c c #2C5822",
"d c #2B5721",
"e c #2A5620",
"f c #29551F",
"g c #28541E",
"h c #26521C",
"i c #25511B",
"j c #24501A",
"k c #0D3903",
"l c #1C2812",
"UUUUNSSSSS3kkEAAAJJ222222222NNNNJJJJJJJdddddddAAAAAAEEEEEEEEENNN",
"UUUNNSSSSS3lEEEEJJJ222222222NNNNJJJJJJJdddddddAAAAAAEEEkEEkkENNN",
"NMMMNNSSS3lllEEEJJNN2222222NNNNORRRJJNNNGGGdNNNNAAANEEEEEEEEkkNN",
"NNNMNNNN333lllllkkkN2222222NNNO0ORRRNNNGGGGGNNNNNNNNNEEEEEEENNNN",
"NNNMNNNNNNhhEElllNFFFN222NNNNNRORRRRRNGGGGGGGNNNNNNNNkkEEEEENNNN",
"NNNNMNNNNNNhhhhllFFFFFFNNNNNNNlllRRRRNGGGGGGGNNNNCCCNNNEEkNNNNNN",
"NNNNMNNkkYNNhhhlllFFFFFNNNNNNNRlllllRNGGGGGGGNNNCCCCCNNNNNNkNNNN",
"NNNNNNNNNYYNNffFllllFFFFNiiikNNllRRllllGGGGGNNNkCCCCCCNNNNNNNNNN",
"NN222NNNNYYYNffFFllllFkkiiiiiNNlRRRkkHlNGGGNNNNCkCCCCCNNNNNNNNNN",
"N22222NNNYYYfffFFlllFFkkiiifffllBBBHHHHNNNNNNNNCCCCCCCNNNNNNNNNN",
"N22222NNYYYYfffflllFFFFNiiffffllBBBHHHHNNNNNNNNNCCCCCNNNNNNNNNNN",
"N22222YYYYYNffffFlggFFFNNiffffllBBBHHHNNkNNNNNNNNCCCNNNNNNNNNN55",
"NN222iiYYYNZZffflllggNlNlNfffflllBkkNNklllNNNNNNNNNNNNNNNNNN5555",
"NNNNNNNNNZZZZffgglllllllllNfffNllNNNTTllllNNNNNNNNNNNNNNNNNN5555",
"NNNNNNNNNZZeeeZgggglllNNNlllNNNNllTTlllllHHHNNNNNNNNNNNNNNN55555",
"NNNNNNNNZZeeeeeggggglgNNNNllNNNNllllllTllHHHHNNNNNNNNNNNNNN55555",
"kNNNNNNNZZeeeeeZgggggNNNNNllNNNNNlkkTTTlllcccHDNNNNNNNiiikk55555",
"NNNNNkNNZOeeeeeZZgggNNNNNNNllNkkNTTTTTTHllccccDDNNNNNiiiiiXX5555",
"NNNNNNNNO0OeeeZZNNNNNNNNNNNllNNNNTTTTTTHlllccccDDNNNNiiiiiXX5555",
"NNNNNNNNNOZZZZZZNNNNNNNNNNNllNkNNNTTTTTlclllccc99NNNNiiiiiXXkk55",
"NNNNN666NNNZZZNNNNNNNNNNNNklllNNNNTTTTllllllccc9999NNNiiiNN77777",
"NNN6666666NNNNNNNNNNNNNNNIHHlllNNNNNTTllNclllcL9999NNTTTNNkk7777",
"NNN6666666NNAAANNNNNNNNNHHHHHlllNNNNNlllXXclcLLL999TTTTTTT777777",
"NN66666YYY6AAAAANkXXXNNNHHHHHHllNNNNNllNXX3LLLLL999TTTTTTT777777",
"NN6666YYYYAAAAAAAXXXXXNHHHHHHHlllNNNlllNX33LLLLL99TTTTTTkTT77777",
"hh6kkYYllYAAAAAAAXXXXXNHHHHHHkHlllNllllNN333LLL999TTTTTTTTTI777T",
"66666YYlYYAAlAAAAXkkkXiHHHHHHHHHllNllll77333999999TTTTTTTTOOOITT",
"66kk6YllYYYlllAAkkXX88aaakkHHHkNlllllll7773333999jjTTTTTTOOOOOTT",
"666886lYYYlllAAiii888aaaaaHHHHHNNlll7ll77C33kk333jjTTTTTTOO0OOIT",
"66688llYYlllNNNiii88aaaaaaaHHNNllllN7ll7CCCC333jjjkGGTTTGOOOOOIT",
"66668l8NlllEENNii888aaaaaaaNNNNllNNN7llMCCCCCCCjjjGGGGGGGGOOOkIT",
"6666llllElEEEENNN888aaaaaaaNNNNllkk44llMCCCCCCCjjjGGGGGGGGGIIIiN",
"666WllllllllEENN78888aaaaaNNNNllNN444llMgCCCCCgjjjjGGGGGUUUIIINN",
"AAWWWWllllllllN7778888aaaNNNNNllN4444444ggCCCggjjjjGGGGUUUUUNNNN",
"AAAWNWllllllll7k778888888NNlNNllN4444444ggggggggjj444GGUUUUUDNNN",
"CAANjWWWllllll777ccc888NNNNllllNN4444444ggggggggXj44444UUkUUDNkk",
"CAAjjWlWlllllN77cccccNNNNNNlNllNNN44444gggggggggkk444444UUUDDNNN",
"CAjjjjlllNNllld7cccccNNNNNllNNNNNNN444NNggggggbbbXX4444444DDNNNN",
"AjjjEEllllldllldcccccNNNNkkNNNNNbbbNNNNNkgggbbbbbbb4444PPPDNNNNN",
"5jjEElEllllddlldllccNNNN222NNNNbbbbbNNNNHHgkkbbbbbbNNPPPPPPPHHHN",
"5jjEElllljlddlllllNNNNNk2222NNbbbbbbbNNHHHHQQQbbbbbbNPPPPPPPHHHH",
"5NjEEllllNddddldllNNNN2222222NbbbbbbbNNHHHQQQQQbbbbbPPPPPPPPPOHH",
"NNjjElljjNNdddddllNNNN2222222NbbbbfffNNHHHQQQQQbbbbbPPPPPPPPO0OH",
"kNNNjllNNNllldkGlGNLLL2222222NNbffff555NGGQPPPQbbbbNPPPPPPPPPOHH",
"NNllllllNllllGGll222LLLL222444NNff5555555PPPPPPPbbbNNPPPPPPPHHHH",
"N8llNlllNlllllll22222kkL2444444fff5555555PPPPPPPbNNNNPPPPPPPHHHH",
"88llllllllllllll222222LLL444444ff555555555PPPPPPPNiiiNNPPP2HHHHH",
"888lllllllNNGGG2222222LLL444444ff555555555PPPPPPPiiiiii22222HHHN",
"88888lllllNNGGG2222222LLL4444444f555555555PPPPPPPiiiiiiii2222NNN",
"888888lllNNNNGGG22222LLL444444k4ff555555fffPkkPPiiiiiiiiiii22NNN",
"U888888llNNNKGGGG222LLLLN4444444Nk55555fffkkPPPPiiiiiiiiiikk2NNN",
"U88888NllNNNKKKVVVCLLLNNN4444444NNNN55fffffffP2iiiiiiiikkiiiNONk",
"U88888NNNNNNKVVVVVVVCCCNNNN444NNNNNNCCfffffff22SiiiiiiiiiiiiO0ON",
"J888NNNNNNNNNVVVVVkkCCCNNNNNNNNNHHHNCCfffffff22SiiiiiiiiiiiiNONN",
"JKKPPPNNNNNNVVVVVVkkccCNNNNNNNNHHHHHNCCfffff22SSSNiiiiiiiii88NNN",
"KPPPPPPPNNNNVVVVVcccccccNkNNNNNHHHHHcNNLfffSSUUUSNkkiiiiiii88NNN",
"KPPPPPPPNNNNVVVVVcccccccddNNNN111HHHcccLSSSkkUUUUNNWWWiii8888666",
"PPPPPPPPPNNNNVVVccccckcccddN1111111ccccNLSSSUUUUUNWWWWWWW8886666",
"PPPPPPPPPNNKKVVVcccccccccdaa1111111cccccNSSSUUUUUNWWWWWWWbbb6666",
"PPPPPPPPPKKkKKKVcccccccccaa111111111ccccNNNSSUUUNNWWWWWWbbbbb666",
"GPPPPPPPTKKKkkKKNcccccccaaa111111k11ccccNNNNNNNkkNkkWWWbbbbbbb66",
"GPPkkPPPKKKKKKKKKcccccccaaa111111111cccNNNNNNNNNNAAWWWWbbbbbbb6k",
"GGGPPPNTKKKKKKKKKNNcccNNaaaa1111111ccccNNNNNNNNNAAAAAWWbbbbbbb66",
"GGGGNNNTKKKKKKKKKNNNNNNNNkka1111111ccNNNNNNNNNkNAAAAANNNbbbbb666"
};
