/* XPM */
static char *wall_64_xpm[] = {
"64 64 7 1",
"  c #6b5546",
". c #7a6250",
"+ c #5b493d",
"@ c #8a715d",
"# c #3d332d",
"$ c #2f2925",
"% c #9a8068",
"################################################################",
"################################################################",
"##.%..%..%..%..%..%..%.+##.%..%..%..%..%..%..%.+##.%..%..%..%..+",
"##.   ..             + +##.        +           +##. +      .   +",
"##. @                  +##.   +     .    @     +##.     %      +",
"##.+                   +##.         .   .      +##.           .+",
"##.+@   .     +     @  +##.    +    %@@        +##.      +   . +",
"##.             + +    +##..  +      +.      % +##.    +  @    +",
"##. . .  %             +##.    @          +    +##.            +",
"##.+++++++++++++++++++++##.+++++++++++++++++++++##.+++++++++++++",
"################################################################",
"################################################################",
"...%..%+##..%..%..%..%..%..%..%+##..%..%..%..%..%..%..%+##..%..+",
".      +##.+     .  @   @      +##.      .     @     .++##.    +",
".+     +##. @                . +##. .       +        . +##.    +",
".    + +##. $+        + .      +##.                    +##.    +",
".  % + +##.  $$        @ @     +##.     @      .   @   +##.    +",
". % +  +##.  $   +     %       +##.                    +##.    +",
".+++++++##.+++$+++++++++++++++++##.+++++++++++++++++++++##.+++++",
"###############$$###############################################",
"################################################################",
"##.%..%..%..%..%..%..%.+##.%..%..%..%..%..%..%.+##.%..%..%..%..+",
"##.               +    +##.. ..      @         +##..           +",
"##.              .   % +##. @          +       +##.            +",
"##.        @          ++##.    +        .+     +##.      %. @  +",
"##.     @ +    .    %  +##.  @     +  +  %  +  +##.  %         +",
"##. %        .   +    .+##.   . ++      @+     +##.            +",
"##.    @     +  % .    +##.         @          +##.    %    @  +",
"##. +  %   ++    +     +##.             .   +$$+##.        ++  +",
"##.+++++++++++++++++++++##.+++++++++++++++++$+++##.+++++++++++++",
"############################################$###################",
"###########################################$####################",
"...%..%+##..%..%..%..%..%..%..%+##..%..%..$$.%..%..%..%+##..%..+",
".+   @ +##. @            .    .+##.%      $     ++     +##.    +",
".      +##.    +      .        +##.       .+         % +##.    +",
".. .   +##.              @     +##.   .              + +##.    +",
".    + +##.    @    .    .     +##.  +               . +##.    +",
".+++++++##.+++++++++++++++++++++##.+++++++++++++++++++++##.+++++",
"################################################################",
"################################################################",
"##.%..%..%..%..%..%..%.+##.%..%..%..%..%..%..%.+##.%..%..%..%..+",
"##.              @     +##.+                   +##.     +      +",
"##.          %      +  +##.++          @    + @+##. +   +    @.+",
"##.+           .       +##. +     +            +##.            +",
"##.       + @         @+##.                    +##..  ++      .+",
"##.           .        +##.  %     .           +##.    +.   +  +",
"##. +  .@      @    %  +##. +  @              .+##.   .       %+",
"##.+++++++++++++++++++++##.+++++++++++++++++++++##.+++++++++++++",
"##############################$#################################",
"###############################$$###############################",
"...%..%+##..%..%..%..%..%..%..%+$$..%..%..%..%..%..%..%+##..%..+",
". .    +##. @                  +$$.+         @@    +   +##.  @ +",
".+   % +##..            .    + +#$.                %  ++##.  % +",
". + .  +##.   +           +@  @+##.        .     %     +##.+   +",
". .    +##.          @         +##.      .      +      +##.   .+",
".%  .  +##.    +        .@     +##.           +.  @  + +##.    +",
".+++++++##.+++++++++++++++++++++##.+++++++++++++++++++++##.+++++",
"################################################################",
"################################################################",
"##.%..%..%..%..%..%..%.+##.%..%..%..%..%..%..%.+##.%..%..%..%..+",
"##.    +. +.      .    +##.     +      +   @   +##.     +      +",
"##.      .   +.      @ +##. .      ..% .       +##.    . %     +",
"##.     %    +  .  .   +##.  .            @    +##.            +",
"##.+++++++++++++++++++++##.+++++++++++++++++++++##.+++++++++++++"
};